X:1
T:Hollister, 10.8.10.8 D
T:Hollister, 10.8.10.8 D
T:Leonard Daugherty, 1901
T:Public Domain Courtesy of the Cyber Hymnal™
C:Leonard Daugherty, 1901
Z:Public Domain
Z:Courtesy of the Cyber Hymnal™
%%score 1 ( 2 3 )
L:1/8
Q:1/4=104
M:4/4
K:Bb
V:1 treble 
V:2 bass 
V:3 bass 
V:1
 [B,D]>[CE] | [DF]2 [FB]2 [FB]2 [FB]>[Fc] | [FB]2 [FA]2 [FA]2 [EA]>[DB] | [Ec]2 [Ec]2 [DB]2 [Fc]2 | %4
 [Fd]4 [Fd]2 [B,D]>[CE] | [DF]2 [DB]2 [DB]2 [DB]>[Ec] | [DB]2 [EA]2 [EA]2 [EA]>[DB] | %7
 [Fc]2 [Fd]2 [Fe]2 [FA]2 | [Ec]4 [DB]2 [FB]>[_AB] | [Ge]2 [Ge]2 [Ge]2 [EB]>[Ge] | %10
 [Fd]2 [Fd]2 [Fd]2 [DB]>[Fd] | [Fc]2 [Fc]2 [Fc]2 [Fe]2 | [Fe]4 [Fd]2 [B,D]>[CE] | %13
 [DF]2 [FB]2 [FB]2 [FB]>[Fc] | [FB]2 [FA]2 [FA]2 [EA]>[DB] | [Fc]2 [Fd]2 [Fe]2 [FA]2 | %16
 [Ec]4 [DB]2 |] %17
V:2
 [B,,F,]>[B,,F,] | [B,,B,]2 [B,,D]2 [B,,D]2 [B,,D]>[B,,E] | [F,D]2 [F,C]2 [F,C]2 [F,C]>[F,B,] | %3
 [F,A,]2 [F,A,]2 [G,B,]2 [F,A,]2 | [B,,B,]4 [B,,B,]2 [B,,F,]>[B,,F,] | %5
 [B,,B,]2 [B,,B,]2 [B,,B,]2 [B,,B,]>[B,,B,] | [F,B,]2 [F,C]2 [F,C]2 [F,C]>[F,B,] | %7
 [F,A,]2 [F,B,]2 [F,C]2 [F,C]2 | [F,A,]4 [B,,B,]2 [B,D]>B, | %9
 [E,B,]2 [E,B,]2 [E,B,]2 [E,G,]>[E,B,] | [B,,B,]2 [B,,B,]2 [B,,B,]2 [B,,B,]>[B,,B,] | %11
 [F,A,]2 [F,A,]2 [F,A,]2 [F,C]2 | [B,,C]4 [B,,B,]2 [B,,F,]>[B,,F,] | %13
 [B,,B,]2 [B,,D]2 [B,,D]2 [B,,D]>[B,,E] | [F,D]2 [F,C]2 [F,C]2 [F,C]>[F,B,] | %15
 [F,A,]2 [F,B,]2 [F,C]2 [F,C]2 | [F,A,]4 [B,,B,]2 |] %17
V:3
 x2 | x8 | x8 | x8 | x8 | x8 | x8 | x8 | x15/2 B,/ | x8 | x8 | x8 | x8 | x8 | x8 | x8 | x6 |] %17

